!!!OTL: 1401. Soldatenleiden.
!!!ODT: 1880 (um)
!!!ARE: Europa, Mitteleuropa, Deutschland, Hessen, Nassau
!!!SCT: E1401
!!!TXL: @@DE
!!!YEM: Copyright 1995, estate of Helmut Schaffrath.
**kern	**text
*ICvox	*
*M3/4	*
*k[b-]	*
*F:	*
!LO:TX:a:t=Mäßig schnell.	!
!LO:TX:a:t=Aus Heſſen-Naſſau, um 1880.	!
{8f	Es
8f	ſag
8a	ein
=1	=1
4.cc	Je-
8cc	-der,
8dd	was
8cc	er
=2	=2
4a	will,
8r}	.
{8cc	daß
8cc	ein
8g	Sol-
=3	=3
(4b-	-dat
8dd)	.
8dd	muß
8.cc	lei-
16b-	-den
=4	=4
4a	viel.
8r}	.
{8c	Viel'
8f	Hitʒ
8a	und
=5	=5
4.cc	Kält'
8cc	muß
8cc	er
8ff	er-
=6	=6
4dd	-tra-
8cc}	-gen,
{8b-	muß
8a	ſein
8cc	Ge-
=7	=7
4.b-	-wehr,
8b-	Tor-
8b-	-ni-
8dd	-ſter
=8	=8
8ccL	tra-
8b-J	.
8a}	-gen
{8g	und
8f	dies
8g	und
=9	=9
8aL	je-
8b-J	.
4cc	-nes
8.dd	noch
16cc	viel-
=10	=10
4a	-mehr,
8r}	.
{8cc	ʒu-
8cc	-letʒt
16gL	giebt
16aJ	.
=11	=11
(4b-	er
8dd)	.
8dd	ſein
8cc	Le-
8b-	-ben
=12	=12
4a	her.
8r}	.
==	==
!!!AGN: Staende -, Soldaten - Lied, Klage
!!!ONB: ESAC (Essen Associative Code) Database: ERK3
!!!AMT: simple triple
!!!AIN: vox
!!!EED: Helmut Schaffrath
!!!EEV: 1.0
!!!GTL: Staendelieder (Berufslieder). 1. Soldaten- und Kriegslieder. Soldatenlieder seit dem 30jaehr. Kriege.
!!!URL-scan: https://rosdok.uni-rostock.de/mcrviewer/recordIdentifier/rosdok_ppn745177999/iview2/phys_0271.iview2?x=-128.77276441889308&y=75.15638857812155&scale=0.5870222003877485&rotation=0&layout=singlePageLayout
!!!ENC: Anna Maria Matuszewska
!!!EEV: 2024/12/30
*-	*-
